img/phone.svg

<svg width="120" height="120" viewBox="0 0 120 120" fill="none" xmlns="http://www.w3.org/2000/svg">
<path fill-rule="evenodd" clip-rule="evenodd" d="M79.8204 0.893125C79.4644 2.16437 77.7987 1.65327 76.9265 1.71989C69.5901 2.27933 60.1963 2.49347 52.9516 3.57998C51.215 5.103 52.1502 8.73221 52.3314 12.2608C52.5655 16.818 52.2862 22.2323 52.1246 25.9017C52.0317 28.0163 52.7317 31.8428 51.0912 32.1024C48.3789 32.5307 50.1285 26.6902 49.6447 24.4547C48.0696 22.1205 47.839 14.2297 50.0579 12.4673C50.2941 8.60359 48.9598 4.54714 50.6781 2.13327C52.3648 -0.236893 58.5789 0.239745 62.2521 0.0661549C68.5333 -0.230378 75.5313 0.545944 79.8204 0.893125Z" fill="#31A560"/>
<path fill-rule="evenodd" clip-rule="evenodd" d="M73.412 3.99691C73.5496 6.11046 66.1765 6.07305 65.1446 4.82366C65.0429 3.96412 65.3896 3.55306 65.9713 3.37674C68.0469 3.18129 71.898 2.94696 73.412 3.99691Z" fill="#31A560"/>
<path fill-rule="evenodd" clip-rule="evenodd" d="M76.3114 3.37702C76.8614 5.05639 74.9786 5.46724 74.2447 4.61716C74.1409 3.37891 75.3123 2.89512 76.3114 3.37702Z" fill="#31A560"/>
<path fill-rule="evenodd" clip-rule="evenodd" d="M71.9621 9.57996H72.5823C72.1712 12.0035 70.3428 13.8575 69.0686 15.9872C67.8111 18.0895 66.6586 20.4359 65.555 22.8077C62.7868 28.7577 59.7519 34.3191 59.5613 42.8559C56.7017 42.8878 56.518 40.4607 56.6679 37.8955C56.9863 32.4277 59.7917 26.7618 62.4548 22.1877C65.1637 17.5351 68.6563 13.3878 71.5489 9.99334C71.5998 9.7689 71.9598 9.85316 71.9621 9.57996Z" fill="#31A560"/>
<path fill-rule="evenodd" clip-rule="evenodd" d="M63.2896 12.0557C62.2029 14.7013 60.0126 16.7815 58.9492 19.4963C58.5043 20.632 58.7424 21.9049 57.7093 22.8031C54.6152 21.898 57.1509 18.8843 58.1225 17.4294C59.5549 15.2843 60.9628 13.5486 62.2561 12.0557H63.2896Z" fill="#31A560"/>
<path fill-rule="evenodd" clip-rule="evenodd" d="M79.8138 16.5968C80.7026 17.8653 78.7683 18.5208 78.1601 19.2839C74.546 23.8189 71.3796 29.9754 68.6528 35.8184C65.8764 41.7676 63.5401 48.2604 62.0389 55.0399C66.3379 50.5509 69.4274 44.7167 72.9932 39.3319C74.0824 37.687 75.1857 35.2073 77.5401 34.9917C77.5458 35.1926 77.7932 35.152 77.9535 35.1983C78.6929 37.6378 76.5942 39.939 75.4734 41.8121C71.9382 47.7207 68.8133 54.5328 66.7927 62.2737C68.0683 61.3478 69.1149 59.1771 70.5129 57.1066C71.2247 56.0526 75.7647 49.3391 76.7136 54.0063C77.1295 56.0528 74.8589 59.0474 73.8197 61.447C72.5966 64.2721 71.686 66.6448 70.9263 68.8868C72.153 68.7586 72.7292 65.6297 75.0601 66.4073C78.4449 67.5375 72.782 75.0969 72.5798 76.3284C73.2035 80.2752 68.4166 78.9617 69.0662 76.5344C68.0666 76.8664 66.9881 76.7193 66.3791 76.1225C65.2739 73.05 67.3838 69.8997 68.0328 67.2349C66.8439 67.4955 66.4215 69.4079 64.3126 69.0948C60.1218 68.4706 64.3611 60.4374 64.726 57.7267C63.4337 57.7887 62.6185 60.0948 60.1788 59.3801C56.4922 58.3003 60.5281 47.6186 61.4189 44.9124C63.8677 37.4739 67.1367 30.4422 71.5464 24.8642C74.0114 21.7461 76.5041 18.0372 79.8138 16.5968Z" fill="#31A560"/>
<path fill-rule="evenodd" clip-rule="evenodd" d="M30.6066 67.0312H31.2265C31.2664 69.6786 32.8204 75.2835 30.3998 76.5381C28.8576 74.7581 30.3323 69.6618 30.6066 67.0312Z" fill="#31A560"/>
<path fill-rule="evenodd" clip-rule="evenodd" d="M30.2075 77.1534C30.3739 77.2627 30.5431 77.3699 30.8276 77.3615C31.514 81.0224 31.2259 84.7212 32.2744 87.6949C32.9109 89.5002 34.4478 90.4963 34.3413 92.4487C34.266 93.8231 32.829 95.4645 32.0676 96.9965C29.7962 101.561 27.7234 106.09 25.6605 110.844C25.4976 111.678 26.6501 110.533 26.4873 111.67C25.6863 114.452 23.7548 116.102 22.1471 118.077C21.3806 116.604 23.3492 114.706 24.0072 113.324C24.9766 107.546 26.8498 102.711 29.1741 96.9965C29.8332 95.3762 31.2698 93.2242 31.241 91.8287C31.22 90.8179 30.2728 89.9814 30.0009 88.9349C29.2819 86.1692 29.7987 79.7384 30.2075 77.1534Z" fill="#31A560"/>
<path fill-rule="evenodd" clip-rule="evenodd" d="M52.94 92.0428C52.1899 94.1864 50.8529 95.7437 49.2198 97.0046C49.1715 94.9976 50.8117 91.8726 52.94 92.0428Z" fill="#31A560"/>
<path fill-rule="evenodd" clip-rule="evenodd" d="M33.9261 99.2725C34.7335 99.4301 35.6284 99.4994 35.5798 100.512C34.8268 100.578 34.2346 100.481 33.7197 100.306C33.49 99.657 33.6228 99.76 33.9261 99.2725Z" fill="#31A560"/>
<path fill-rule="evenodd" clip-rule="evenodd" d="M47.3708 104.022C45.8616 105.131 44.8131 103.093 43.6506 102.576C42.1778 102.284 40.6714 103.295 40.1367 102.162C42.0821 100.621 47.3846 101.067 47.3708 104.022Z" fill="#31A560"/>
<path fill-rule="evenodd" clip-rule="evenodd" d="M47.1642 105.893C48.1732 106.303 49.0611 107.8 48.6112 108.995C47.3389 108.901 46.1605 106.934 47.1642 105.893Z" fill="#31A560"/>
<path fill-rule="evenodd" clip-rule="evenodd" d="M55.4189 111.059C54.2301 114.348 52.3193 116.916 50.872 119.946C49.6516 118.973 50.9295 116.884 51.4919 115.398C52.1863 113.566 52.8697 111.893 53.9722 110.645C54.7264 110.512 55.0732 110.785 55.4189 111.059Z" fill="#31A560"/>
<path fill-rule="evenodd" clip-rule="evenodd" d="M91.5986 68.887C94.056 68.141 95.7457 63.4452 93.0453 61.654C91.2121 62.8193 89.8753 66.6005 91.5986 68.887ZM90.9784 61.654C91.7382 61.5183 92.0078 60.892 92.425 60.4139C92.0616 60.3641 91.9542 60.0583 92.0118 59.5871C92.4384 58.8423 93.2391 58.4718 93.6655 57.727C92.5567 57.871 92.3472 57.1163 91.5986 56.9003C91.9078 59.001 90.7962 59.6806 90.9784 61.654ZM48.6086 60.0005C48.5108 60.9002 47.8823 61.8942 47.9882 62.6874C48.1895 64.1877 49.9431 65.1128 50.2621 66.2012C50.7858 64.273 49.8649 62.7185 49.6421 61.0338C49.2178 57.8268 50.5149 54.5889 49.6421 51.1132C48.4991 53.2624 48.9246 57.0902 48.6086 60.0005ZM92.8388 35.8187C91.8624 37.8711 92.918 40.9836 92.8388 43.4657C95.733 42.5164 98.1534 35.8801 92.8388 35.8187ZM90.9784 11.4299C91.2691 12.035 92.4956 11.7042 92.632 12.4635C93.0352 14.8158 92.7324 17.8746 93.0453 20.3173C92.968 21.2735 91.7617 21.1005 91.5986 21.9708C91.2275 23.9265 92.4176 24.321 92.8388 25.4844C92.7654 28.7868 93.2933 32.6909 91.8054 34.5784C99.3969 33.4145 98.6051 42.7298 94.4921 45.946C94.9975 46.7091 96.3276 46.9485 96.9723 48.2195C97.9447 50.1368 98.6303 54.3729 96.5592 55.2467C95.3848 53.1809 96.9127 48.205 94.2855 46.9796C93.2864 46.8551 92.508 48.6117 91.3918 49.0463C90.8614 50.9768 91.4595 53.1363 91.8054 54.8336C92.8402 56.1836 94.3868 55.757 95.9388 56.4869C95.3745 58.0582 94.1764 58.9957 93.2519 60.2071C95.1805 61.3789 95.7053 63.9544 95.9388 66.821C96.0844 67.7921 94.909 67.4453 94.4921 67.8551C93.7897 68.5802 95.2104 68.3511 94.9054 69.301C94.0684 70.6692 93.3202 72.1255 92.2186 73.2289C91.8586 78.0352 92.2762 83.6191 90.5653 87.0762C87.6779 89.9616 82.5204 87.6751 78.5777 88.9361C75.2841 89.9889 72.6571 96.2243 69.0701 97.2036C65.6376 102.107 60.7105 105.515 55.8424 108.985C56.6761 106.465 59.1219 104.633 61.0095 102.577C62.9152 100.501 64.8426 98.4289 66.5899 96.3756C70.3361 95.2996 71.9026 92.0443 74.0307 89.3501C67.2352 89.4762 60.7195 89.659 53.9823 89.3501C53.6233 90.0919 53.8367 91.4075 52.9489 91.624C52.0186 91.4706 52.288 89.6569 52.5356 88.9361C49.1722 84.5774 50.4201 74.5234 50.2621 67.6471C49.4961 67.3255 48.3929 66.6198 48.1952 65.1677C47.6456 65.7204 47.4893 66.6663 46.1283 66.4076C44.5529 64.475 46.0131 61.6977 46.5419 59.1737C47.4365 54.9 47.2114 50.6199 50.0553 48.6331C49.945 43.9863 52.3147 35.7101 47.7818 33.545C46.5684 36.5335 46.5637 40.8428 44.6818 43.4657C43.9853 44.4362 42.5781 44.8948 41.7881 45.946C39.7244 48.6911 38.8257 53.2717 37.4477 56.6937C36.779 58.3539 35.9812 60.4004 35.1742 62.0674C34.5635 63.3292 33.4823 65.8158 31.454 65.3744C31.0156 62.0815 33.7 59.651 35.1742 56.9003C36.6067 54.2275 38.3363 51.3 39.5146 48.4261C39.7918 47.7496 39.9091 46.3911 40.3412 45.5326C41.1385 43.9489 43.4601 41.6651 44.475 39.3321C45.311 37.4102 45.5985 32.1561 47.1616 31.6849C49.5423 30.967 52.1588 33.9036 52.5356 35.6119C52.9202 37.3556 53.4054 40.8297 53.3623 42.4324C53.3213 43.9621 52.6146 45.1871 52.5356 46.3594C52.4019 48.3412 52.8346 50.4535 52.7424 52.5599C52.6417 54.846 52.2411 57.0615 52.122 59.3803C51.9366 62.9988 52.5744 66.6404 52.7424 70.335C52.962 75.1728 52.7472 79.7795 52.7424 84.1823C55.8523 87.0215 66.0918 85.1133 73.2037 85.6303C74.5168 85.7248 76.6953 85.9707 78.5777 85.8362C79.2703 86.4415 78.0874 86.6727 78.5777 87.0762C81.4211 86.9269 83.6858 87.4776 86.2249 87.0762C85.3166 86.1935 82.4963 87.2212 81.6779 86.2502C83.6103 84.5921 88.7195 86.2439 90.1519 84.5963C90.7729 79.4621 88.7495 74.0128 90.3587 69.921C88.8416 66.8823 90.6216 63.4969 89.9453 60.0005C89.8381 59.4478 89.4014 58.9142 89.3251 58.347C88.8308 54.6648 89.5353 50.1592 89.3251 45.5326C88.8811 35.7567 88.705 25.0076 88.705 15.5637C88.705 10.7528 89.8217 5.10797 87.6716 2.12941C86.3682 1.09018 82.4557 2.66047 81.8845 0.889266C84.8757 0.0190034 89.4853 0.964928 90.5653 3.36934C90.5384 6.22076 90.9427 8.64114 90.9784 11.4299Z" fill="#31A560"/>
</svg>

<svg xmlns="http://www.w3.org/2000/svg" width="120" height="120" fill="none" viewBox="0 0 120 120"><path fill="#31A560" fill-rule="evenodd" d="M79.82.893c-.356 1.271-2.021.76-2.893.827-7.337.56-16.73.773-23.975 1.86-1.737 1.523-.802 5.152-.62 8.68.233 4.558-.046 9.972-.207 13.642-.093 2.114.607 5.94-1.034 6.2-2.712.429-.962-5.412-1.446-7.647-1.575-2.334-1.806-10.225.413-11.988.236-3.863-1.098-7.92.62-10.334C52.365-.237 58.578.24 62.252.066c6.281-.296 13.28.48 17.568.827" clip-rule="evenodd"/><path fill="#31A560" fill-rule="evenodd" d="M73.412 3.997c.138 2.113-7.236 2.076-8.267.827-.102-.86.245-1.27.826-1.447 2.076-.196 5.927-.43 7.441.62m2.899-.62c.55 1.68-1.332 2.09-2.066 1.24-.104-1.238 1.067-1.722 2.066-1.24M71.962 9.58h.62c-.41 2.424-2.24 4.278-3.513 6.407-1.258 2.103-2.41 4.449-3.514 6.82-2.768 5.95-5.803 11.512-5.994 20.049-2.86.032-3.043-2.395-2.893-4.96.318-5.468 3.124-11.134 5.787-15.708 2.709-4.653 6.201-8.8 9.094-12.195.05-.224.41-.14.413-.413m-8.672 2.476c-1.087 2.645-3.277 4.726-4.34 7.44-.446 1.136-.208 2.409-1.24 3.307-3.095-.905-.56-3.919.413-5.374 1.432-2.145 2.84-3.88 4.133-5.373zm16.524 4.541c.889 1.268-1.046 1.924-1.654 2.687-3.614 4.535-6.78 10.691-9.507 16.534-2.777 5.95-5.113 12.442-6.614 19.222 4.299-4.49 7.388-10.323 10.954-15.708 1.09-1.645 2.193-4.125 4.547-4.34.006.2.253.16.413.206.74 2.44-1.359 4.741-2.48 6.614-3.535 5.909-6.66 12.72-8.68 20.462 1.275-.926 2.322-3.097 3.72-5.167.712-1.054 5.252-7.768 6.2-3.1.416 2.046-1.854 5.04-2.893 7.44-1.223 2.825-2.134 5.198-2.894 7.44 1.227-.128 1.803-3.257 4.134-2.48 3.385 1.13-2.278 8.69-2.48 9.921.624 3.947-4.163 2.634-3.514.206-1 .332-2.078.185-2.687-.412-1.105-3.072 1.005-6.222 1.654-8.887-1.19.26-1.612 2.173-3.72 1.86-4.191-.624.048-8.658.413-11.368-1.292.062-2.108 2.368-4.547 1.653-3.687-1.08.35-11.761 1.24-14.468 2.449-7.438 5.718-14.47 10.127-20.048 2.465-3.118 4.958-6.827 8.268-8.267M30.607 67.031h.62c.04 2.648 1.593 8.252-.827 9.507-1.542-1.78-.068-6.876.207-9.507m-.399 10.122c.166.11.335.217.62.209.686 3.66.398 7.36 1.446 10.333.637 1.805 2.174 2.801 2.067 4.754-.075 1.374-1.512 3.016-2.273 4.547-2.272 4.565-4.345 9.094-6.407 13.848-.163.834.99-.311.826.826-.8 2.782-2.732 4.432-4.34 6.407-.766-1.473 1.202-3.371 1.86-4.753.97-5.778 2.843-10.613 5.167-16.327.66-1.62 2.096-3.773 2.067-5.168-.021-1.011-.968-1.848-1.24-2.894-.72-2.766-.202-9.197.206-11.782m22.733 14.89c-.75 2.143-2.087 3.7-3.72 4.962-.048-2.007 1.592-5.132 3.72-4.962m-19.014 7.23c.807.157 1.702.226 1.654 1.239-.753.066-1.345-.031-1.86-.206-.23-.649-.097-.546.206-1.034m13.444 4.75c-1.508 1.109-2.557-.929-3.72-1.446-1.472-.292-2.979.719-3.513-.414 1.945-1.541 7.248-1.095 7.234 1.86m-.207 1.871c1.01.41 1.897 1.907 1.447 3.102-1.272-.094-2.45-2.061-1.447-3.102m8.255 5.166c-1.189 3.289-3.1 5.857-4.547 8.887-1.22-.973.057-3.062.62-4.548.694-1.832 1.378-3.505 2.48-4.753.754-.133 1.101.14 1.447.414" clip-rule="evenodd"/><path fill="#31A560" fill-rule="evenodd" d="M91.599 68.887c2.457-.746 4.147-5.442 1.446-7.233-1.833 1.165-3.17 4.946-1.446 7.233m-.62-7.233c.76-.136 1.029-.762 1.446-1.24-.363-.05-.47-.356-.413-.827.426-.745 1.227-1.115 1.653-1.86-1.108.144-1.318-.61-2.066-.827.309 2.101-.803 2.78-.62 4.754M48.608 60c-.098.9-.727 1.894-.62 2.687.2 1.5 1.954 2.426 2.273 3.514.524-1.928-.397-3.482-.62-5.167-.424-3.207.873-6.445 0-9.92C48.5 53.261 48.925 57.09 48.61 60m44.23-24.181c-.977 2.052.079 5.165 0 7.647 2.894-.95 5.314-7.586 0-7.647m-1.86-24.39c.29.606 1.517.275 1.653 1.034.403 2.353.1 5.412.413 7.854-.077.956-1.283.784-1.446 1.654-.371 1.956.819 2.35 1.24 3.513-.074 3.303.454 7.207-1.034 9.094 7.592-1.164 6.8 8.152 2.687 11.368.505.763 1.836 1.003 2.48 2.273.973 1.918 1.658 6.154-.413 7.028-1.174-2.066.354-7.042-2.273-8.267-1-.125-1.778 1.632-2.894 2.066-.53 1.93.068 4.09.413 5.788 1.035 1.35 2.582.923 4.134 1.653-.564 1.571-1.763 2.509-2.687 3.72 1.928 1.172 2.453 3.747 2.687 6.614.145.971-1.03.624-1.447 1.034-.702.725.718.496.413 1.446-.837 1.368-1.585 2.825-2.686 3.928-.36 4.806.057 10.39-1.654 13.847-2.887 2.886-8.045.6-11.987 1.86-3.294 1.053-5.92 7.288-9.508 8.268-3.432 4.903-8.36 8.311-13.228 11.781.834-2.52 3.28-4.352 5.168-6.408 1.905-2.076 3.833-4.148 5.58-6.201 3.746-1.076 5.313-4.332 7.44-7.026-6.795.126-13.31.309-20.048 0-.359.742-.145 2.058-1.033 2.274-.93-.153-.661-1.967-.413-2.688-3.364-4.359-2.116-14.413-2.274-21.289-.766-.322-1.87-1.027-2.067-2.48-.55.553-.706 1.5-2.067 1.24-1.575-1.932-.115-4.71.414-7.233.895-4.274.67-8.554 3.513-10.54-.11-4.648 2.26-12.924-2.273-15.089-1.214 2.988-1.218 7.298-3.1 9.92-.697.971-2.104 1.43-2.894 2.481-2.064 2.745-2.962 7.326-4.34 10.748-.669 1.66-1.467 3.706-2.274 5.373-.61 1.262-1.692 3.749-3.72 3.307-.438-3.292 2.246-5.723 3.72-8.474 1.433-2.672 3.162-5.6 4.34-8.474.278-.676.395-2.035.827-2.893.797-1.584 3.12-3.868 4.134-6.2.836-1.923 1.124-7.177 2.687-7.648 2.38-.718 4.997 2.219 5.374 3.927.384 1.744.87 5.218.826 6.82-.04 1.53-.747 2.755-.826 3.927-.134 1.982.299 4.094.206 6.2-.1 2.287-.5 4.503-.62 6.821-.185 3.619.452 7.26.62 10.955.22 4.838.005 9.445 0 13.847 3.11 2.84 13.35.931 20.462 1.448 1.313.095 3.491.34 5.374.206.692.606-.49.837 0 1.24 2.843-.15 5.108.402 7.647 0-.908-.882-3.729.145-4.547-.826 1.932-1.658 7.041-.006 8.474-1.654.62-5.134-1.403-10.583.207-14.675-1.517-3.039.263-6.424-.414-9.92-.107-.553-.544-1.087-.62-1.654-.494-3.682.21-8.188 0-12.814-.444-9.776-.62-20.525-.62-29.97 0-4.81 1.117-10.455-1.033-13.434-1.304-1.039-5.216.531-5.787-1.24 2.99-.87 7.6.076 8.68 2.48-.027 2.852.378 5.272.413 8.06" clip-rule="evenodd"/></svg>
